assets/icons/qvision/rotate_right.svg

<svg xmlns="http://www.w3.org/2000/svg" height="24" viewBox="0 0 24 24" width="24"><path d="M0 0h24v24H0z" fill="none"/><path d="M15.55 5.55L11 1v3.07C7.06 4.56 4 7.92 4 12s3.05 7.44 7 7.93v-2.02c-2.84-.48-5-2.94-5-5.91s2.16-5.43 5-5.91V10l4.55-4.45zM19.93 11c-.17-1.39-.72-2.73-1.62-3.89l-1.42 1.42c.54.75.88 1.6 1.02 2.47h2.02zM13 17.9v2.02c1.39-.17 2.74-.71 3.9-1.61l-1.44-1.44c-.75.54-1.59.89-2.46 1.03zm3.89-2.42l1.42 1.41c.9-1.16 1.45-2.5 1.62-3.89h-2.02c-.14.87-.48 1.72-1.02 2.48z"/></svg>

<svg width="24" height="24" viewBox="0 0 24 24" fill="none" xmlns="http://www.w3.org/2000/svg">
<g clip-path="url(#clip0_147_3713)">
<path d="M15.55 5.55L11 1V4.07C7.06 4.56 4 7.92 4 12C4 16.08 7.05 19.44 11 19.93V17.91C8.16 17.43 6 14.97 6 12C6 9.03 8.16 6.57 11 6.09V10L15.55 5.55ZM19.93 11C19.76 9.61 19.21 8.27 18.31 7.11L16.89 8.53C17.43 9.28 17.77 10.13 17.91 11H19.93ZM13 17.9V19.92C14.39 19.75 15.74 19.21 16.9 18.31L15.46 16.87C14.71 17.41 13.87 17.76 13 17.9ZM16.89 15.48L18.31 16.89C19.21 15.73 19.76 14.39 19.93 13H17.91C17.77 13.87 17.43 14.72 16.89 15.48Z" fill="#323232"/>
</g>
<defs>
<clipPath id="clip0_147_3713">
<rect width="24" height="24" fill="white"/>
</clipPath>
</defs>
</svg>
